!!!!SEGMENT: pl-cz--iii-50--008_brykner-jerzy--vesperae-nisi-dominus.krn
!!!cenid: 17xx:850
!!!COM: Brykner, Jerzy
!!!COM-rismid: pe30025739
!!!CDT: 1705-1760
!!!CNT: Polish
!!!OPR: Vesperae
!!!OTL: Nisi Dominus
!!!OMV: 008
!!!PDT:
!!!AGN: Sacred; Vespers
!!!SMS-siglum: PL-CZ
!!!SMS-shelfmark: III-50
!!!SMS-shelfwork: 001-008 M
!!!SMS-variant:
!!!SMS-altvar:
!!!NIFC-rismid: 300033583
!!!system-decoration: [(s1,s2)][(s3,s4)]s5
!!!key:
**kern	**fba	**kern	**kern	**dynam	**kern	**text	**kern
*part5	*part5	*part4	*part3	*part3	*part2	*part2	*part1
*staff5	*staff5	*staff4	*staff3	*	*staff2	*staff2	*staff1
*Iorgan	*	*Ivioln	*Ivioln	*	*Iempty	*	*Ivox
*I"Organo	*	*I"Violino Secondo	*I"Violino Primo	*	*I"Baſso.	*	*I"Canto.
*I'org	*	*I'vl 2	*I'vl 1	*	*I'B	*	*I'S
*clefF4	*	*clefG2	*clefG2	*	*clefF4	*	*clefC1
*k[b-]	*	*k[b-]	*k[b-]	*	*k[b-]	*	*k[b-]
*d:	*	*d:	*d:	*	*d:	*	*d:
*M4/4	*	*M4/4	*M4/4	*	*M4/4	*	*M4/4
*met(c)	*	*met(c)	*met(c)	*	*met(c)	*	*met(c)
=1	=1	=1	=1	=1	=1	=1	=1
*2\right	*	*	*2\right	*	*2\right	*	*
!	!	!LO:TX:a:t=P:problem=wszystkie nuty mają caudy z prawej strony	!	!	!	!	!
!	!	!	!	!	!	!	!LO:TX:a:t=P:problem=w źródle na okładce podano brakujące w głosach clno 1, 2 [https&colon;//opac.rism.info/metaopac/singleHit.do?methodToCall=showHit&curPos=12&identifier=251_SOLR_SERVER_600155827]
!	!	!	!	!	!LO:TX:a:t=P:problem=W źródle każda strona głosu Basso oznaczona u góry krzyżykiem (czasami krzyżykiem z kropką)	!	!
!	!	!	!	!	!LO:SIC:o=N:v:t=w źródle 'N' znajduje się przed kluczem i oznaczeniem metrum	!	!
!LO:TX:b:Bi:t=Nisi Dominus.:problem='Nisi Dominus.' znajduje się przed kluczem	!	!LO:TX:b:Bi:t=Nisi Dominus.:problem='Nisi Dominus.' znajduje się przed kluczem	!LO:TX:b:Bi:t=Nisi Dominus.:problem='Nisi Dominus.' znajduje się przed kluczem	!	!	!	!LO:TX:a:Bi:t=Nisi D(omin)us Tacet
!LO:TX:a:Bi:t=Solo	!	!	!	!	!LO:TX:a:Bi:t=Solo.	!	!
!	!	!	!	!	!LO:TX:a:Bi:t=4.	!	!
8D\L	.	4dd\	4dd\|	.	00r	.	1ryy
8B-\	.	.	.	.	.	.	.
8A\	.	4dd\	4dd\|	.	.	.	.
8G\J	.	.	.	.	.	.	.
8F\L	6	16dd\LL	16dd\LL	.	.	.	.
.	.	16cc#X\	16cc#X\	.	.	.	.
8E\	.	16dd\	16dd\	.	.	.	.
.	.	16ee\JJ	16ee\JJ	.	.	.	.
8D\	.	16ff\LL	16ff\LL	.	.	.	.
.	.	16gg\	16gg\	.	.	.	.
8G\J	.	16aa\	16aa\	.	.	.	.
.	.	16bb-\JJ	16bb-\JJ	.	.	.	.
=2	=2	=2	=2	=2	=2	=2	=2
8A\L	#	8cc#X\L|	8cc#X\L|	.	.	.	1ryy
16D\L	.	8dd\J|	8dd\J|	.	.	.	.
16E\JJ	.	.	.	.	.	.	.
8F\L	.	16r	16r	.	.	.	.
.	.	16aa\LL	16aa\LL	.	.	.	.
8D\J	.	16gg\	16gg\	.	.	.	.
.	.	16aa\JJ	16aa\JJ	.	.	.	.
8G\L	.	16bb-\LL	16bb-\LL	.	.	.	.
.	.	16dd\	16dd\	.	.	.	.
8F\	.	16bb-\	16bb-\	.	.	.	.
.	.	16dd\JJ	16dd\JJ	.	.	.	.
8E\	6	16cc#\LL	16cc#\LL	.	.	.	.
.	.	16ee\	16ee\	.	.	.	.
8C\J	.	16gg\	16gg\	.	.	.	.
.	.	16bb-\JJ	16bb-\JJ	.	.	.	.
=3	=3	=3	=3	=3	=3	=3	=3
8F\L	.	16aa\LL	16aa\LL	.	.	.	1ryy
.	.	16cc\	16cc\	.	.	.	.
8E\	.	16aa\	16aa\	.	.	.	.
.	.	16cc\JJ	16cc\JJ	.	.	.	.
8D\	6	16b-\LL	16b-\LL	.	.	.	.
.	.	16dd\	16dd\	.	.	.	.
8BB-\J	.	16ff\	16ff\	.	.	.	.
.	.	16aa\JJ	16aa\JJ	.	.	.	.
8E\L	.	16gg\LL	16gg\LL	.	.	.	.
.	.	16b-\	16b-\	.	.	.	.
8D\J	.	16gg\	16gg\	.	.	.	.
.	.	16b-\JJ	16b-\JJ	.	.	.	.
8C#X/L	6	16a\LL	16a\LL	.	.	.	.
.	.	16cc#X\	16cc#X\	.	.	.	.
8AA/J	.	16ee\	16ee\	.	.	.	.
.	.	16gg\JJ	16gg\JJ	.	.	.	.
!	!	!	!LO:LB:g=original	!	!	!	!
=4	=4	=4	=4	=4	=4	=4	=4
8D/L	.	(>16ff\LL	16ff\LL	.	.	.	1ryy
.	.	16ee\)	(>16ee\	.	.	.	.
8BB-/	.	(>16ee\	16ee\)	.	.	.	.
.	.	16dd\JJ)	16dd\JJ	.	.	.	.
!	!	!	!LO:SIC:s=16ee-:v	!	!	!	!
8GG/	-6	16ee-X\LL	16ee\LL	.	.	.	.
.	.	16dd\	(>16dd\	.	.	.	.
8AA/J	#	16dd\	16dd\)	.	.	.	.
!	!	!LO:TX:a:t=P:problem=krzyżyk nad nutą	!	!	!	!	!
.	.	16cc#Xi\JJ	16cc#X\JJ	.	.	.	.
!	!	!LO:LB:g=original	!	!	!	!	!
8BB-/L	.	8dd\L	8dd\L	.	.	.	.
8GG/J	.	8bb-\J	8bb-\J	.	.	.	.
4AA/	#	4cc#X\	4cc#Xt>\	.	.	.	.
=5	=5	=5	=5	=5	=5	=5	=5
8D\L	.	4dd\	4dd\	.	4A\	NI-	1ryy
8D\	.	.	.	.	.	.	.
.	.	.	.	.	8qqG/	.	.
8D\	.	8r	8r	.	4F\	-si	.
!	!	!	!	!LO:DY:b:t=%sia	!	!	!
8D\J	.	8aa\L	8aa\L	p	.	.	.
.	.	.	.	.	8qqE/	.	.
!LO:LB:g=original	!	!	!	!	!	!	!
8D\L	.	8ff\	8ff\	.	16D\	Do-	.
.	.	.	.	.	16C#X\	-mi-	.
8E\	.	8dd\J	8dd\J	.	8D\	-nus	.
8F\	.	8r	8r	.	8r	.	.
8G\J	.	8dd\	8dd\	.	8B-\	ae-	.
=6	=6	=6	=6	=6	=6	=6	=6
8F\L	6	4dd\	4dd\	.	8A\	-di-	1ryy
8D\	.	.	.	.	16G\LL	-fi-	.
.	.	.	.	.	16F\JJ	.	.
8E\	6\	4cc#X\	4cc#X\	.	8G\	-ca-	.
8AA\J	.	.	.	.	16F\	-ve-	.
.	.	.	.	.	16E\	-rit	.
8D\L	.	8dd\L	8dd\L	.	8F\	do-	.
8E\	.	8a\J	8a\J	.	8D\	-m(um),	.
8F\	.	8d/L	8d/L	.	8r	.	.
8C#X\J	.	8e/J	8e/J	.	8A\	in	.
=7	=7	=7	=7	=7	=7	=7	=7
8D/L	.	4f/	4f/	.	8D\	va-	1ryy
8BB-/	.	.	.	.	16D\	-n(um)	.
.	.	.	.	.	16E\	la-	.
8FF/	6	4r	4r	.	16F\LL	-bo-	.
.	.	.	.	.	16G\JJ	.	.
8GG/J	.	.	.	.	16A\LL	-ra-	.
.	.	.	.	.	16B-\JJ	.	.
!LO:TX:a:t=P:problem=mixed beam	!	!	!	!	!	!	!
8AA/L	#	8r	8r	.	8A\	-ve-	.
8F\	6	8aa\L	8aa\L	.	8d\	-r(un)t,	.
!	!	!	!	!	!LO:LB:g=original	!	!
8G\	.	8dd\	8dd\	.	8B-\	qui	.
8E\J	.	8gg\J	8gg\J	.	16A\LL	ae-	.
.	.	.	.	.	16G\JJ	.	.
=8	=8	=8	=8	=8	=8	=8	=8
8A\L	#	8cc#X\L	8cc#X\L	.	8A\	-di-	1ryy
8D\J	.	16dd\L	16dd\L	.	16D\	-fi-	.
.	.	16b-\JJ	16b-\JJ	.	16E\	-ca(n)t	.
!	!	!LO:TX:a:t=P:problem=w źrodle tryl z łuczkiem	!	!	!LO:TX:a:Bi:t=t.	!	!
4AA/	#	4cc#t>\	4cc#\	.	4E\	e-	.
8D\L	.	4dd\	4dd\	.	4D\	-am.	.
8E\	.	.	.	.	.	.	.
8F\	.	16r	16r	.	4r	.	.
!	!	!	!	!LO:DY:b:t=%sor	!	!	!
.	.	16aa\LL	16aa\LL	f	.	.	.
8D\J	.	16gg\	16gg\	.	.	.	.
.	.	16aa\JJ	16aa\JJ	.	.	.	.
!	!	!	!LO:LB:g=original	!	!	!	!
=9	=9	=9	=9	=9	=9	=9	=9
!	!	!	!	!	!LO:TX:a:Bi:t=3.	!	!
8G\L	.	16bb-\LL	16bb-\LL	.	0r	.	1ryy
.	.	16dd\	16dd\	.	.	.	.
8F\	.	16bb-\	16bb-\	.	.	.	.
.	.	16dd\JJ	16dd\JJ	.	.	.	.
8E\	6	16cc\LL	16cc\LL	.	.	.	.
.	.	16ee\	16ee\	.	.	.	.
8C\J	.	16gg\	16gg\	.	.	.	.
.	.	16bb-\JJ	16bb-\JJ	.	.	.	.
8F\L	.	16aa\LL	16aa\LL	.	.	.	.
.	.	16cc\	16cc\	.	.	.	.
8E\	.	16aa\	16aa\	.	.	.	.
.	.	16cc\JJ	16cc\JJ	.	.	.	.
!	!	!LO:LB:g=original	!	!	!	!	!
8D\	6	16b-\LL	16b-\LL	.	.	.	.
.	.	16dd\	16dd\	.	.	.	.
8BB-\J	.	16ff\	16ff\	.	.	.	.
.	.	16aa\JJ	16aa\JJ	.	.	.	.
=10	=10	=10	=10	=10	=10	=10	=10
8E\L	.	16gg\LL	16gg\LL	.	.	.	1ryy
.	.	16b-\	16b-\	.	.	.	.
8D\	.	16gg\	16gg\	.	.	.	.
.	.	16b-\JJ	16b-\JJ	.	.	.	.
8C#X\	6	16a\LL	16a\LL	.	.	.	.
.	.	16cc#X\	16cc#X\	.	.	.	.
8AA\J	.	16ee\	16ee\	.	.	.	.
.	.	16gg\JJ	16gg\JJ	.	.	.	.
!LO:LB:g=original	!	!	!	!	!	!	!
8D/L	.	(>16ff\LL	(>16ff\LL	.	.	.	.
.	.	16ee\)	16ee\)	.	.	.	.
8BB-/	.	(>16ee\	(>16ee\	.	.	.	.
.	.	16dd\JJ)	16dd\JJ)	.	.	.	.
8GG/	-6	(>16ee-X\LL	(>16ee-X\LL	.	.	.	.
.	.	16dd\)	16dd\	.	.	.	.
8AA/J	#	(>16dd\	16dd\)	.	.	.	.
.	.	16cc#X\JJ)	16cc#X\JJ	.	.	.	.
=11	=11	=11	=11	=11	=11	=11	=11
8BB-/L	.	8dd\L	8dd\L	.	1r	.	1ryy
8GG/J	.	8bb-\J	8bb-\J	.	.	.	.
!	!	!LO:TX:a:t=P:problem=w źrodle tryl z łuczkiem	!	!	!	!	!
4AA/	#	4cc#Xt>\	4cc#X\	.	.	.	.
8D/L	.	16dd\LL	16dd\LL	.	.	.	.
.	.	16ee\	16ee\	.	.	.	.
8BB-/J	.	16ff\	16ff\	.	.	.	.
.	.	16a\JJ	16a\JJ	.	.	.	.
!	!	!LO:TX:a:t=P:problem=mixed beam	!LO:TX:a:t=P:problem=mixed beam	!	!	!	!
4C/	.	8g/L	8g/L	.	.	.	.
.	.	8ee\J	8ee\J	.	.	.	.
!	!	!	!LO:LB:g=original	!	!	!	!
=12	=12	=12	=12	=12	=12	=12	=12
8F\L	.	4ff\	4ff\	.	4c\	Ni-	1ryy
8F\	.	.	.	.	.	.	.
.	.	.	.	.	8qqB-/	.	.
8F\	.	8r	8r	.	4A\	-si	.
8F\J	.	8ccc\L	8ccc\L	.	.	.	.
.	.	.	.	.	8qqG/	.	.
8F\L	.	8aa\	8aa\	.	16F\	Do-	.
.	.	.	.	.	16E\	-mi-	.
8G\	.	8ff\J	8ff\J	.	8F\	-n(us)	.
8A\	.	8r	8r	.	8r	.	.
8B-\J	.	8ff\	8ff\	.	16d\	cus-	.
.	.	.	.	.	16d\	-to-	.
=13	=13	=13	=13	=13	=13	=13	=13
8A\L	6	4ff\	4ff\	.	8c\	-di-	1ryy
8F\	.	.	.	.	16B-\	-e-	.
.	.	.	.	.	16A\	-rit	.
!	!	!LO:TX:a:t=P:problem=w źrodle tryl z łuczkiem	!	!	!	!	!
8G\	6	4eet>\	4eet>\	.	8B-\	ci-	.
8C\J	.	.	.	.	16A\LL	-vi-	.
.	.	.	.	.	16G\JJ	.	.
8F\L	.	8ff\L	8ff\L	.	8A\	-ta-	.
8G\	.	8cc\	8cc\J	.	8F\	-tem,	.
!	!	!	!	!	!LO:SIC:custos G:v	!	!
!	!	!	!	!	!LO:LB:g=original	!	!
!	!	!	!LO:TX:a:t=P:problem=mixed beam	!	!	!	!
8A\	.	8f\	8f/L	.	8r	.	.
8E\J	.	8cc\J	8cc\J	.	16G\	frus-	.
.	.	.	.	.	16G\	-tra	.
=14	=14	=14	=14	=14	=14	=14	=14
8F\L	.	8cc\	8cc\	.	8A\	vi-	1ryy
8E\	.	8r	8r	.	16F\	-gi-	.
.	.	.	.	.	16G\	-lat,	.
8F\	.	8dd\	8dd\	.	8A\	qui	.
8D\J	.	8r	8r	.	8d\	cus-	.
!	!	!LO:LB:g=original	!	!	!	!	!
8G\L	n	8dd\L	8dd\L	.	8Bn\	-to-	.
8C\J	.	16ee\L	16ee\L	.	8c\	-dit	.
.	.	16cc\JJ	16cc\JJ	.	.	.	.
!	!	!	!	!	!LO:TX:a:Bi:t=t.	!	!
4GG/	.	4bn/	4bn\	.	4G\	e-	.
=15	=15	=15	=15	=15	=15	=15	=15
!LO:TX:a:t=P:problem=mixed beam	!	!	!	!	!	!	!
8C/L	.	4cc\|	4cc\|	.	4C/	-am.	1ryy
8A\	.	.	.	.	.	.	.
8G\	.	4cc\|	4cc\|	.	4r	.	.
8F\J	.	.	.	.	.	.	.
8E\L	6	16cc\LL	16cc\LL	.	2r	.	.
.	.	16bn\	16bn\	.	.	.	.
8D\	.	16cc\	16cc\	.	.	.	.
.	.	16dd\JJ	16dd\JJ	.	.	.	.
8C\	.	16ee\LL	16ee\LL	.	.	.	.
.	.	16ff\	16ff\	.	.	.	.
8F\J	.	16gg\	16gg\	.	.	.	.
.	.	16aa\JJ	16aa\JJ	.	.	.	.
!LO:PB:g=original	!	!	!	!	!	!	!
=16	=16	=16	=16	=16	=16	=16	=16
!	!	!	!	!	!LO:TX:a:Bi:t=3.	!	!
8G\L	n	8bn\L|	8bn\L|	.	0r	.	1ryy
16C\L	.	8cc\J|	8cc\J|	.	.	.	.
16D\JJ	.	.	.	.	.	.	.
8E\L	.	16r	16r	.	.	.	.
.	.	16gg\LL	16gg\LL	.	.	.	.
8C\J	.	16ff\	16ff\	.	.	.	.
.	.	16gg\JJ	16gg\JJ	.	.	.	.
8F\L	.	16aa\LL	16aa\LL	.	.	.	.
.	.	16cc\	16cc\	.	.	.	.
8E\	.	16aa\	16aa\	.	.	.	.
.	.	16cc\JJ	16cc\JJ	.	.	.	.
8D\	6\	16bn\LL	16bn\LL	.	.	.	.
.	.	16dd\	16dd\	.	.	.	.
8BBn\J	.	16ff\	16ff\	.	.	.	.
.	.	16aa\JJ	16aa\JJ	.	.	.	.
!	!	!	!LO:LB:g=original	!	!	!	!
=17	=17	=17	=17	=17	=17	=17	=17
8E\L	.	16gg\LL	16gg\LL	.	.	.	1ryy
.	.	16bn\	16bn\	.	.	.	.
8D\	.	16gg\	16gg\	.	.	.	.
.	.	16b\JJ	16b\JJ	.	.	.	.
8C\	6	16a\LL	16a\LL	.	.	.	.
.	.	16cc\	16cc\	.	.	.	.
8AA\J	.	16ee\	16ee\	.	.	.	.
.	.	16gg\JJ	16gg\JJ	.	.	.	.
8D/L	.	16ff\LL	16ff\LL	.	.	.	.
.	.	16a\	16a\	.	.	.	.
8C/	.	16ff\	16ff\	.	.	.	.
.	.	16a\JJ	16a\JJ	.	.	.	.
8BBn/	6	16g/LL	16g\LL	.	.	.	.
.	.	16bn/	16bn\	.	.	.	.
8GG/J	.	16dd/	16dd\	.	.	.	.
.	.	16ff/JJ	16ff\JJ	.	.	.	.
=18	=18	=18	=18	=18	=18	=18	=18
8C/L	.	(>16ee\LL	(>16ee\LL	.	1r	.	1ryy
.	.	16dd\)	16dd\	.	.	.	.
8AA/	.	(>16dd\	16dd\)	.	.	.	.
.	.	16cc\JJ)	16cc\JJ	.	.	.	.
8FF/	6	4ryy	(>16dd\LL	.	.	.	.
.	.	.	16cc\	.	.	.	.
8GG/J	n	.	16cc\)	.	.	.	.
.	.	.	16bn\JJ	.	.	.	.
8AA/L	.	8cc\L	8cc\L	.	.	.	.
8FF/J	.	8aa\J	8aa\J	.	.	.	.
4GG/	n	4bn/	4bn/	.	.	.	.
!	!	!LO:LB:g=original	!	!	!	!	!
=19	=19	=19	=19	=19	=19	=19	=19
8C/L	.	4cc\	4cc\	.	8G\	Va-	1ryy
8C/	.	.	.	.	16E\	-num	.
.	.	.	.	.	16G\	e(st)	.
8C/	.	8gg\L	8gg\L	.	8E\	vo-	.
8C/J	.	16ee\L	16ee\L	.	8C/	-bis	.
.	.	16gg\JJ	16gg\JJ	.	.	.	.
8C/L	.	8ee\L	8ee\L	.	8r	.	.
8C/	.	8cc\J	8cc\J	.	16E\	an-	.
.	.	.	.	.	16E\	-te	.
8C/	.	4r	4r	.	16F\LL	lu-	.
.	.	.	.	.	16G\JJ	.	.
8C/J	.	.	.	.	16A\LL	-cem	.
.	.	.	.	.	16Bn\JJ	.	.
!	!	!	!	!	!LO:LB:g=original	!	!
=20	=20	=20	=20	=20	=20	=20	=20
8C/L	.	16r	16r	.	8.c\	Sur-	1ryy
.	.	16cc\LL	16cc\LL	.	.	.	.
8C/	.	16dd\	16dd\	.	.	.	.
.	.	16ee\JJ	16ee\JJ	.	16C/	-ge-	.
8C/	.	16ff\LL	16ff\LL	.	4C/	-re,	.
.	.	16gg\	16gg\	.	.	.	.
8C/J	.	16aa\	16aa\	.	.	.	.
.	.	16bbn\JJ	16bbn\JJ	.	.	.	.
8C/L	.	8ccc\L	8ccc\L	.	8.c\	Sur-	.
8C/	.	8cc\J	8cc\J	.	.	.	.
.	.	.	.	.	16G\	-gi-	.
8C/	.	16r	16r	.	4G\	-te	.
.	.	16e/LL	16e/LL	.	.	.	.
8C/J	.	16c/	16c/	.	.	.	.
.	.	16e/JJ	16e/JJ	.	.	.	.
!	!	!	!LO:LB:g=original	!	!	!	!
=21	=21	=21	=21	=21	=21	=21	=21
!	!	!LO:TX:a:t=P:problem=mixed beam	!LO:TX:a:t=P:problem=mixed beam	!	!	!	!
4C/	.	8g/L	8g/L	.	8r	.	1ryy
.	.	8ee\	8ee\	.	8c\	post-	.
4D\	6\	8dd\	8dd\	.	8Bn\	-qua(m)	.
.	5	8cc\J	8cc\J	.	8A\	Se-	.
4.E\	#	8bn/L	8bn/L	.	8.G#X\	-de-	.
.	.	8e/J	8e/J	.	.	.	.
.	.	.	.	.	16F#X\	-ri-	.
.	.	4r	4r	.	8E\	-tis,	.
8C\	6	.	.	.	8A\	qui	.
!LO:SIC:custos D:v	!	!	!	!	!	!	!
!LO:LB:g=original	!	!	!	!	!	!	!
=22	=22	=22	=22	=22	=22	=22	=22
4D/	.	2r	2r	.	(>8F\	man-	1ryy
.	.	.	.	.	4E\)	.	.
8C/L	.	.	.	.	.	.	.
8BBn/J	.	.	.	.	8D\	-du-	.
4AA/	.	4r	4r	.	8E\	-ca-	.
.	.	.	.	.	8A\	-tis	.
4D/	.	8r	8r	.	8F\	pa-	.
.	.	8dd\	8dd\	.	16E\	-ne(m)	.
.	.	.	.	.	16D\	do-	.
=23	=23	=23	=23	=23	=23	=23	=23
!	!	!	!	!	!LO:TX:a:Bi:t=t.	!	!
2E\	6 4	4cc\	4cc\	.	2E\	-lo-	1ryy
.	5 #	4bn/	4bn\	.	.	.	.
8AA/L	.	4a/	4a\	.	4AA/	-ris.	.
8BBn/	.	.	.	.	.	.	.
8C/	.	16r	16r	.	4r	.	.
!	!	!	!	!LO:DY:b:t=%sor	!	!	!
.	.	16ee\LL	16ee\LL	f	.	.	.
8AA/J	.	16dd\	16dd\	.	.	.	.
.	.	16ee\JJ	16ee\JJ	.	.	.	.
!	!	!LO:SIC:custos ff:v	!	!	!	!	!
!	!	!LO:LB:g=original	!	!	!	!	!
=24	=24	=24	=24	=24	=24	=24	=24
!	!	!	!	!	!LO:TX:a:Bi:t=2.	!	!
8D/L	.	16ff\LL	16ff\LL	.	0r	.	1ryy
.	.	16a\	16a\	.	.	.	.
8C/	.	16ff\	16ff\	.	.	.	.
.	.	16a\JJ	16a\JJ	.	.	.	.
8BBn/	6	16g/LL	16g\LL	.	.	.	.
.	.	16bn/	16bn\	.	.	.	.
8GG/J	.	16dd/	16dd\	.	.	.	.
.	.	16ff/JJ	16ff\JJ	.	.	.	.
8C/L	.	16ee/LL	16ee\LL	.	.	.	.
.	.	16g/	16g\	.	.	.	.
8BB/	.	16ee/	16ee\	.	.	.	.
.	.	16g/JJ	16g\JJ	.	.	.	.
8AA/	6	16f\LL	16f\LL	.	.	.	.
.	.	16a\	16a\	.	.	.	.
8FF/J	.	16cc\	16cc\	.	.	.	.
.	.	16ee\JJ	16ee\JJ	.	.	.	.
=25	=25	=25	=25	=25	=25	=25	=25
!LO:TX:a:t=P:problem=mixed beam	!	!	!LO:TX:a:t=P:problem=mixed beam	!	!	!	!
8BBn/L	.	16dd/LL	16dd\LL	.	.	.	1ryy
.	.	16f/	16f/	.	.	.	.
!LO:SIC:s=8Bn:v	!	!	!	!	!	!	!
8B-\	.	16dd/	16dd\	.	.	.	.
.	.	16f/JJ	16f/JJ	.	.	.	.
8G#X\	6	16e/LL	16e/LL	.	.	.	.
.	.	16g#X/	16g#X/	.	.	.	.
8E\J	.	16bn/	16bn/	.	.	.	.
.	.	16dd/JJ	16dd/JJ	.	.	.	.
!	!	!	!LO:LB:g=original	!	!	!	!
8A\L	.	16cc\LL	(<16cc/LL	.	.	.	.
.	.	(>16bn\	16bn/)	.	.	.	.
8F\	.	16b\)	(<16b/	.	.	.	.
.	.	16a\JJ	16a/JJ)	.	.	.	.
8D\	-6	16b-X/LL	(<16b-X/LL	.	.	.	.
.	.	16a/	16a/)	.	.	.	.
8E\J	#	16a/	(<16a/	.	.	.	.
.	.	16g#X/JJ	16g#X/JJ)	.	.	.	.
!	!	!	!	!	!LO:LB:g=original	!	!
=26	=26	=26	=26	=26	=26	=26	=26
!	!	!LO:TX:a:t=P:problem=mixed beam	!LO:TX:a:t=P:problem=mixed beam	!	!	!	!
8F\L	.	8a/L	8a/L	.	2r	.	1ryy
8D\J	.	8ff\J	8ff\J	.	.	.	.
4E\	#	4g#X/	4g#X/	.	.	.	.
!LO:TX:a:t=P:problem=mixed beam	!	!	!	!	!	!	!
8AA/L	.	4a/	4a/	.	4r	.	.
16A\L	.	.	.	.	.	.	.
16G\JJ	.	.	.	.	.	.	.
8F\L	.	8r	8r	.	8r	.	.
!	!	!	!	!LO:DY:b:t=%sia	!	!	!
8E\J	.	8f/	8f/	p	8c\	Cum	.
=27	=27	=27	=27	=27	=27	=27	=27
8F\L	.	4f/	4f/	.	8.A\	de-	1ryy
8C\	.	.	.	.	.	.	.
.	.	.	.	.	16A\	-de-	.
8G\	6	4e/	4e/	.	8B-\	-rit	.
8C\J	.	.	.	.	16A\LL	di-	.
.	.	.	.	.	16B-\JJ	.	.
8A\L	.	8f/L	8f/L	.	8c\	-le-	.
16F\L	.	16a/L	16a/L	.	8F\	-ctis	.
16E\JJ	.	16cc/JJ	16cc/JJ	.	.	.	.
!LO:SIC:custos D:v	!	!	!	!	!	!	!
!LO:LB:g=original	!	!	!	!	!	!	!
8D/L	.	8ff\L	8ff\L	.	8r	.	.
*	*	*	*	*	*	*ij	*
8BB-/J	.	8dd\J	8dd\J	.	8d\	di-	.
=28	=28	=28	=28	=28	=28	=28	=28
!	!	!	!	!	!LO:TX:a:Bi:t=t.	!	!
8C/L	.	4cc\	4cc\	.	8.E\	-le-	1ryy
8GG/	.	.	.	.	.	.	.
.	.	.	.	.	(>32D\LLL	-ctis	.
.	.	.	.	.	32E\JJJ)	.	.
*	*	*	*	*	*	*Xij	*
!	!	!	!	!	!LO:TX:a:Bi:t=t.	!	!
8D/	6\	4bn/	4bn\	.	8.F\	su-	.
8GG/J	.	.	.	.	.	.	.
.	.	.	.	.	(>32E\LLL	-is	.
.	.	.	.	.	32F\JJJ)	.	.
!	!	!LO:LB:g=original	!	!	!	!	!
!	!	!	!	!LO:DY:b:t=%sor	!	!	!
8E\L	.	8cc\L	8cc\L	f	8G\	som-	.
8F\	.	8aa\J	8aa\J	.	8C/	-num,	.
8E\	.	16gg\LL	16gg\LL	.	4r	.	.
.	.	16cc\	16cc\	.	.	.	.
8D\J	.	16ff\	16ff\	.	.	.	.
.	.	16cc\JJ	16cc\JJ	.	.	.	.
=29	=29	=29	=29	=29	=29	=29	=29
!	!	!	!	!LO:DY:b:t=%sia	!	!	!
4C/	.	8ee\L	8ee\L	p	8B-\	ec-	1ryy
.	.	8ee\	8ee\	.	16B-\	-ce	.
.	.	.	.	.	16B-\	hae-	.
8D\L	6	8ff\	8ff\	.	8B-\	-re-	.
8E\J	.	8gg\J	8gg\J	.	16A\	-di-	.
.	.	.	.	.	16G\	-tas	.
4F\	.	4cc\	4cc\	.	16A\	Do-	.
.	.	.	.	.	16G\	-mi-	.
!	!	!	!	!	!LO:LB:g=original	!	!
.	.	.	.	.	8F\	-ni	.
4AA/	6	4r	4r	.	8c\	fruc-	.
.	-5	.	.	.	8E-X\	-tus	.
=30	=30	=30	=30	=30	=30	=30	=30
*	*	*Xtuplet	*	*	*	*	*
4BB-/	.	4r	4r	.	16D\LL	ven-	1ryy
.	.	.	.	.	16F\	.	.
.	.	.	.	.	16G\	.	.
.	.	.	.	.	16A\JJ	.	.
8G\L	.	8r	8r	.	16B-\LL	.	.
.	.	.	.	.	16d\	.	.
8E-X\J	6	8ee-X\	8ee-X\	.	16G\	.	.
.	.	.	.	.	16c\JJ	.	.
!	!	!	!LO:SIC:custos cc:v	!	!	!	!
!	!	!	!LO:LB:g=original	!	!	!	!
8F\L	.	16cc\LL	16cc\LL	.	8A\L	.	.
.	.	16ee-\JJ	16ee-\JJ	.	.	.	.
!	!	!	!LO:TUP:a:problem=klamra łukowa	!	!	!	!
8BB-\J	.	24dd\LL	24dd\LL	.	8B-\J	.	.
.	.	24cc\	24cc\	.	.	.	.
.	.	24b-\JJ	24b-\JJ	.	.	.	.
!	!	!	!	!	!LO:TX:a:Bi:t=t.	!	!
4FF/	.	4a/	4ccT>\	.	4F\	.	.
*	*	*tuplet	*	*	*	*	*
=31	=31	=31	=31	=31	=31	=31	=31
!LO:TX:a:t=P:problem=mixed beam	!	!	!	!	!	!	!
!	!	!	!	!LO:DY:b:t=%sor	!	!	!
8BB-/L	.	4b-/	4b-\|	f	4BB-/	-tris.	1ryy
8G\	.	.	.	.	.	.	.
8F\	.	4b-/	4b-\|	.	4r	.	.
8E-X\J	.	.	.	.	.	.	.
!LO:TX:a:t=P:problem=mixed beam	!	!	!	!	!	!	!
8D/L	6	16b-\LL	16b-\LL	.	2r	.	.
.	.	16a\	16a\	.	.	.	.
8C/	.	16b-\	16b-\	.	.	.	.
.	.	16cc\JJ	16cc\JJ	.	.	.	.
8BB-/	.	16dd\LL	16dd\LL	.	.	.	.
.	.	16ee-X\	16ee-X\	.	.	.	.
8E-X\J	.	16ff\	16ff\	.	.	.	.
.	.	16gg\JJ	16gg\JJ	.	.	.	.
=32	=32	=32	=32	=32	=32	=32	=32
!LO:TX:a:t=P:problem=mixed beam	!	!	!	!	!LO:TX:a:Bi:t=2.	!	!
8F\L	.	8a/L	8a/L|	.	0r	.	1ryy
16BB-/L	.	8b-/J	8b-/J|	.	.	.	.
16C/JJ	.	.	.	.	.	.	.
8D/L	.	16r	16r	.	.	.	.
.	.	16ff\LL	16ff\LL	.	.	.	.
8BB-/J	.	16ee-X\	16ee-X\	.	.	.	.
.	.	16ff\JJ	16ff\JJ	.	.	.	.
8E-X\L	.	16gg\LL	16gg\LL	.	.	.	.
.	.	16b-\	16b-\	.	.	.	.
8D\	.	16gg\	16gg\	.	.	.	.
.	.	16b-\JJ	16b-\JJ	.	.	.	.
8C\	.	16a\LL	16a\LL	.	.	.	.
.	.	16cc\	16cc\	.	.	.	.
8AA\J	.	16ee-X\	16ee-X\	.	.	.	.
.	.	16gg\JJ	16gg\JJ	.	.	.	.
=33	=33	=33	=33	=33	=33	=33	=33
8D/L	.	16ff\LL	16ff\LL	.	.	.	1ryy
.	.	16a\	16a\	.	.	.	.
8C/	.	16ff\	16ff\	.	.	.	.
.	.	16a\JJ	16a\JJ	.	.	.	.
!	!	!LO:SIC:custos g:v	!	!	!	!	!
!	!	!LO:LB:g=original	!	!	!	!	!
8BB-/	.	16g\LL	16g\LL	.	.	.	.
.	.	16b-\	16b-\	.	.	.	.
8GG/J	.	16dd\	16dd\	.	.	.	.
.	.	16ff\JJ	16ff\JJ	.	.	.	.
!LO:SIC:custos C:v	!	!	!	!	!	!	!
!LO:LB:g=original	!	!	!	!	!	!	!
!	!	!LO:SIC:s=16ee-:v	!	!	!	!	!
8C/L	-	16ee\LL	16ee-X\LL	.	.	.	.
.	.	16g\	16g\	.	.	.	.
!	!	!LO:SIC:s=16ee-:v	!	!	!	!	!
8BB-/	.	16ee\	16ee-\	.	.	.	.
.	.	16g\JJ	16g\JJ	.	.	.	.
8AA/	.	16f/LL	16f\LL	.	.	.	.
.	.	16a/	16a\	.	.	.	.
8FF/J	.	16cc/	16cc\	.	.	.	.
.	.	16ee-X/JJ	16ee-X\JJ	.	.	.	.
!	!	!	!LO:LB:g=original	!	!	!	!
=34	=34	=34	=34	=34	=34	=34	=34
!LO:TX:a:t=P:problem=mixed beam	!	!	!	!	!	!	!
8BB-/L	.	16dd\LL	(>16dd\LL	.	2r	.	1ryy
.	.	(>16cc\	16cc\)	.	.	.	.
8G\	.	16cc\	(>16cc\	.	.	.	.
.	.	16b-\JJ)	16b-\JJ)	.	.	.	.
8E-X\	6	16cc\LL	(>16cc\LL	.	.	.	.
.	.	(>16b-\	16b-\)	.	.	.	.
8F\J	.	16b-\	(>16b-\	.	.	.	.
.	.	16a\JJ)	16a\JJ)	.	.	.	.
8G\L	.	8b-\L	8b-\L	.	4r	.	.
8E-X\J	.	8gg\J	8gg\J	.	.	.	.
4F\	.	4a/	4at>/	.	8r	.	.
.	.	.	.	.	8F\	Sa-	.
=35	=35	=35	=35	=35	=35	=35	=35
4BB-/	.	4b-/	4b-/	.	8F\	-git-	1ryy
.	.	.	.	.	16F\	-ta	.
.	.	.	.	.	16F\	in	.
8D/L	.	4r	4r	.	8F\	ma-	.
8C/J	.	.	.	.	16G\	-nu	.
.	.	.	.	.	16A\	po-	.
8BB-/L	.	16r	16r	.	8B-\	-te(n)-	.
.	.	16ff\LL	16ff\LL	.	.	.	.
8C/	.	16gg\	16gg\	.	8BB-/	-tis,	.
.	.	16aa\JJ	16aa\JJ	.	.	.	.
!	!	!	!	!	!LO:LB:g=original	!	!
!	!	!LO:TX:a:t=P:problem=mixed beam	!	!	!	!	!
8D/	.	8bb-\L	8bb-\L	.	8r	.	.
8GG/J	.	8b-/J	8b-\J	.	16B-\	i-	.
.	.	.	.	.	16G\	-ta	.
=36	=36	=36	=36	=36	=36	=36	=36
4C/	-	4r	4r	.	8E-X\	fi-	1ryy
.	.	.	.	.	16C/	-li-	.
.	.	.	.	.	16C/	-i	.
!LO:TX:a:t=P:problem=mixed beam	!	!	!	!	!	!	!
8c\L	6	8ee-X\L	8ee-X\L	.	8AA/	ex-	.
8C/J	5	8cc\J	8cc\J	.	8A\	-cuſ-	.
8D/L	#	8a/L	8a/L	.	16F#X\LL	-so-	.
.	.	.	.	.	16D\	.	.
8C/	.	8d/J	8d/J	.	16E-\	.	.
.	.	.	.	.	16F#\JJ	.	.
8BB-/	6	8dd\L	8dd\L	.	16G\LL	.	.
.	.	.	.	.	16A\	.	.
8GG/J	.	16cc\L	16cc\L	.	16B-\	.	.
.	.	16b-\JJ	16b-\JJ	.	16c\JJ	.	.
=37	=37	=37	=37	=37	=37	=37	=37
8D\L	#	8a/L	8a/L	.	8F#X\L	.	1ryy
8G\J	.	16b-/L	16b-/L	.	8G\J	.	.
.	.	16g/JJ	16g/JJ	.	.	.	.
!	!	!LO:TX:a:t=P:problem=w źródle tr bez łuczku	!	!	!LO:TX:a:Bi:t=t	!	!
4D\	4	4at>/	4a/	.	4D\	.	.
.	#	.	.	.	.	.	.
!	!	!	!LO:TX:b:Bi:t=V&colon;S&colon;	!	!	!	!
!	!	!	!LO:SIC:custos g:v	!	!	!	!
!	!	!	!LO:PB:g=original	!	!	!	!
8GG/L	.	4g/	4g/	.	4GG/	-rum.	.
8AA/	.	.	.	.	.	.	.
8BB-/	.	16r	16r	.	4r	.	.
.	.	16dd\LL	16dd\LL	.	.	.	.
8GG/J	.	16cc\	16cc\	.	.	.	.
.	.	16dd\JJ	16dd\JJ	.	.	.	.
!	!	!LO:LB:g=original	!	!	!	!	!
=38	=38	=38	=38	=38	=38	=38	=38
!LO:TX:a:t=P:problem=mixed beam	!	!	!	!	!LO:TX:a:Bi:t=z.	!	!
!	!	!LO:SIC:s=16ee-:v	!	!	!	!	!
8C/L	-	16ee\LL	16ee-X\LL	.	0r	.	1ryy
.	.	16g\	16g\	.	.	.	.
!	!	!LO:SIC:s=16ee-:v	!	!	!	!	!
8c\	.	16ee\	16ee-\	.	.	.	.
.	.	16g\JJ	16g\JJ	.	.	.	.
8A\	.	16f\LL	16f\LL	.	.	.	.
.	.	16a\	16a\	.	.	.	.
8F\J	.	16cc\	16cc\	.	.	.	.
.	.	16ee-X\JJ	16ee-X\JJ	.	.	.	.
8B-\L	.	16dd/LL	16dd\LL	.	.	.	.
.	.	16f/	16f\	.	.	.	.
8A\	.	16dd/	16dd\	.	.	.	.
.	.	16f/JJ	16f\JJ	.	.	.	.
8G\	.	16e-X/LL	16e-X/LL	.	.	.	.
.	.	16g/	16g/	.	.	.	.
8E-X\J	.	16b-/	16b-/	.	.	.	.
.	.	16dd/JJ	16dd/JJ	.	.	.	.
!LO:SIC:custos A:v	!	!	!	!	!	!	!
!LO:LB:g=original	!	!	!	!	!	!	!
=39	=39	=39	=39	=39	=39	=39	=39
8A\L	.	16cc/LL	16cc/LL	.	.	.	1ryy
.	.	16e-X/	16e-X/	.	.	.	.
8G\	.	16cc/	16cc/	.	.	.	.
.	.	16e-/JJ	16e-/JJ	.	.	.	.
8F#X\	.	16d/LL	16d/LL	.	.	.	.
.	.	16f#X/	16f#X/	.	.	.	.
8D\J	.	16a/	16a/	.	.	.	.
.	.	16cc/JJ	16cc/JJ	.	.	.	.
8G\L	.	16b-/LL	(<16b-/LL	.	.	.	.
.	.	(<16a/	16a/)	.	.	.	.
8E-X\	.	16a/	(<16a/	.	.	.	.
.	.	16g/JJ)	16g/JJ)	.	.	.	.
8C\	6	16a-X/LL	(<16a-X/LL	.	.	.	.
.	.	(<16g/	16g/)	.	.	.	.
8D\J	#	16g/	(<16g/	.	.	.	.
.	.	16f#X/JJ)	16f#X/JJ)	.	.	.	.
=40	=40	=40	=40	=40	=40	=40	=40
!	!	!LO:TX:a:t=P:problem=mixed beam	!LO:TX:a:t=P:problem=mixed beam	!	!	!	!
8E-X\L	.	8g/L	8g/L	.	4r	.	1ryy
8C\J	.	8ee-X\J	8ee-X\J	.	.	.	.
4D\	#	4f#X/	4f#X/	.	8r	.	.
.	.	.	.	.	8D\	Be-	.
4GG/	.	4g/	4g/	.	8.G\	-a-	.
.	.	.	.	.	16A\	-tus	.
4D\	6	8r	8r	.	8B-\	vir,	.
!	!	!	!	!LO:DY:b:t=%so.	!	!	!
.	.	8ff\	8ff\	p	16c\	qui	.
.	.	.	.	.	16d\	im-	.
!	!	!	!LO:LB:g=original	!	!LO:LB:g=original	!	!
=41	=41	=41	=41	=41	=41	=41	=41
4E-X\	6 x	16gg\LL	16gg\LL	.	16c\	-ple-	1ryy
.	5 x	16ff\	16ff\	.	16d\	-vit	.
.	.	16ee-X\	16ee-X\	.	16B-\	de-	.
.	.	16dd\JJ	16dd\JJ	.	16c\	-si-	.
!	!	!	!LO:TX:a:t=P:problem=mixed beam	!	!	!	!
8F\L	.	8cc/L	8cc\L	.	8A\	-de-	.
8D\J	6 x	8f/J	8f/J	.	16G\	-ri-	.
.	.	.	.	.	16F\	-um	.
8En\L	6 3	8b-/L	8g/L	.	8B-\	Su-	.
8F\	x 3	8a/J	8f/J	.	16A\	-u(m)	.
.	.	.	.	.	16A\	ex	.
8F\	4 2	4b-/	4b-\	.	4G\	ip-	.
8E\J	.	.	.	.	.	.	.
=42	=42	=42	=42	=42	=42	=42	=42
8F\L	.	4a/	4a/	.	4F\	-sis,	1ryy
8C\J	.	.	.	.	.	.	.
4FF/	.	4r	4r	.	8r	.	.
.	.	.	.	.	8A\	non	.
4r	.	4r	4r	.	8B-\	con-	.
.	.	.	.	.	8D\	-fu(n)-	.
!	!	!LO:LB:g=original	!	!	!	!	!
!	!	!	!LO:N:vis=16	!	!	!	!
8r	.	8r	8r	.	8C#X/	-de-	.
8C#X/	6	8aa\	8aa\	.	16A\LL	-tur,	.
.	.	.	.	.	16G\JJ	.	.
=43	=43	=43	=43	=43	=43	=43	=43
8D/L	6	8bb-\L	8bb-\L	.	8F\	cum	1ryy
8GG/	.	8dd\	8dd\	.	8B-\	lo-	.
8AA/	#	8cc#X\	8cc#X\	.	8A\	-que-	.
8FF/J	.	8gg\J	8bb-\J	.	16d\LL	-t(ur)	.
.	.	.	.	.	16c\JJ	.	.
4GG/	.	16gg\LL	16gg\LL	.	16B-\LL	i-	.
.	.	16ff\	16ff\	.	16A\JJ	.	.
.	.	16ee\	16ee\	.	16G\LL	-ni-	.
.	.	16dd\JJ	16dd\JJ	.	16F\JJ	.	.
8AA/L	#	8cc#X\L	8cc#X\L	.	8E\	-mi-	.
8GG/J	.	16b-\L	16bn\L	.	16F\LL	-cis	.
.	.	16a\JJ	16a\JJ	.	16G\JJ	.	.
!	!	!	!	!	!LO:LB:g=original	!	!
=44	=44	=44	=44	=44	=44	=44	=44
8FF/L	6	8dd\L	8dd\L	.	8A\	Su-	1ryy
8GG/J	.	16cc#X\L	16cc#X\L	.	16D\	-is	.
.	.	16b-\JJ	16b-\JJ	.	16E\	in	.
!	!	!LO:TX:a:t=P:problem=w źródle tr bez łuczku	!	!	!LO:TX:a:Bi:t=t.	!	!
4AA/	#	4cc#Xt>\	4cc#X\	.	4E\	por-	.
8D\L	.	16ff\LL	(>16ff\LL	.	4D\	-ta.	.
.	.	(>16ee\	16ee\)	.	.	.	.
8B-\	.	16ee\)	(>16ee\	.	.	.	.
.	.	16dd\JJ	16dd\JJ)	.	.	.	.
8G\	-6	16ee-X\LL	(>16ee-X\LL	.	4r	.	.
.	.	(>16dd\	16dd\)	.	.	.	.
8A\J	#	16dd\)	(>16dd\	.	.	.	.
.	.	16cc#X\JJ	16cc#X\JJ)	.	.	.	.
=45	=45	=45	=45	=45	=45	=45	=45
8B-\L	.	8dd\L	8dd\L	.	2r	.	1ryy
8G\J	.	8bb-\J	8bb-\J	.	.	.	.
!LO:LB:g=original	!	!	!	!	!	!	!
4A\	#	4cc#X\	4cc#X\	.	.	.	.
!	!	!	!LO:LB:g=original	!	!	!	!
8D\L	.	4dd\	4dd\	.	8r	.	.
8E\	.	.	.	.	16D\LL	Glo-	.
.	.	.	.	.	16E\JJ	.	.
!	!	!	!	!	!LO:TX:a:t=P:problem=w źródle kropka nuty po kresce taktowej	!	!
8F\	.	4r	4r	.	[>4F\	.	.
8E\J	.	.	.	.	.	.	.
=46	=46	=46	=46	=46	=46	=46	=46
*	*	*	*	*	*cue	*	*
!	!	!	!	!	!LO:N:vis=x	!	!
8D/L	.	2r	2r	.	8F\]	.	1ryy
*	*	*	*	*	*Xcue	*	*
8BB-/J	.	.	.	.	16E\	-ri-	.
.	.	.	.	.	16D\	-a	.
4C/	.	.	.	.	4E\	Pat-	.
4F\	.	16f/LL	16f/LL	.	4F\	-ri,	.
.	.	16e/	16e/	.	.	.	.
.	.	16f/	16f/	.	.	.	.
.	.	16g/JJ	16g/JJ	.	.	.	.
8FF/L	.	16a/LL	16a\LL	.	4r	.	.
.	.	16b-/	16b-\	.	.	.	.
8BB-/J	.	16cc/	16cc\	.	.	.	.
.	.	16dd/JJ	16dd\JJ	.	.	.	.
=47	=47	=47	=47	=47	=47	=47	=47
8C\L	.	8e/L	8e/L	.	8r	.	1ryy
16F\L	.	8f/J	8f/J	.	16A\LL	Glo-	.
16G\JJ	.	.	.	.	16Bn\JJ	.	.
8A\L	.	4r	4r	.	4.c\	.	.
8G\J	.	.	.	.	.	.	.
!LO:TX:a:t=P:problem=mixed beam	!	!	!	!	!	!	!
8A\L	.	2r	2r	.	.	.	.
8F\	.	.	.	.	16Bn\	-ri-	.
.	.	.	.	.	16A\	-a	.
8G\	n	.	.	.	8.Bn\	Fi-	.
8GG/J	.	.	.	.	.	.	.
.	.	.	.	.	16c\	-li-	.
=48	=48	=48	=48	=48	=48	=48	=48
4C/	.	16cc\LL	16cc\LL	.	4c\	-o,	1ryy
.	.	16bn\	16bn\	.	.	.	.
.	.	16cc\	16cc\	.	.	.	.
.	.	16dd\JJ	16dd\JJ	.	.	.	.
8c\L	.	16ee\LL	16ee\LL	.	4r	.	.
.	.	16ff\	16ff\	.	.	.	.
8F\J	6	16gg\	16gg\	.	.	.	.
.	.	16aa\JJ	16aa\JJ	.	.	.	.
!	!	!LO:LB:g=original	!	!	!	!	!
8G\L	n	8bn\L	8bn\L	.	8r	.	.
8C\J	.	8cc\J	8cc\J	.	16c\	et	.
.	.	.	.	.	16B-X\	Spi-	.
!	!	!	!	!	!LO:LB:g=original	!	!
4F\	.	4r	4r	.	8A\	-ri-	.
.	.	.	.	.	16F\	-tu-	.
.	.	.	.	.	16E\	-i	.
=49	=49	=49	=49	=49	=49	=49	=49
4BB-/	.	2r	2r	.	8D\	San-	1ryy
.	.	.	.	.	16d\LL	.	.
.	.	.	.	.	16c\JJ	.	.
4GG/	.	.	.	.	8B-\L	.	.
.	.	.	.	.	8qqA/	.	.
.	.	.	.	.	8G\J	.	.
.	.	.	.	.	8qqF/	.	.
8C/L	.	4r	4r	.	8E\L	.	.
8C#X/J	6	.	.	.	16A\L	.	.
.	.	.	.	.	16G\JJ	.	.
4D/	.	8r	8r	.	8F\L	.	.
.	.	.	.	.	8qqE/	.	.
.	.	8a/	8a/	.	8D\J	.	.
=50	=50	=50	=50	=50	=50	=50	=50
.	.	.	.	.	8qqC/	.	.
2BB-/	7	8a/L	8a/L	.	2BB-/	.	1ryy
.	6	16g/L	16g/L	.	.	.	.
.	.	16f/JJ	16f/JJ	.	.	.	.
.	.	4g/	4g/	.	.	.	.
4AA/	#	16a/LL	16a/LL	.	4AA/	-cto.	.
.	.	16g#X/	16g#X/	.	.	.	.
.	.	16a/	16a/	.	.	.	.
.	.	16bn/JJ	16bn/JJ	.	.	.	.
8A\L	.	16cc\LL	16cc\LL	.	4r	.	.
.	.	16dd\	16dd\	.	.	.	.
8D\J	.	16ee\	16ee\	.	.	.	.
.	.	16ff\JJ	16ff\JJ	.	.	.	.
!	!	!	!LO:LB:g=original	!	!	!	!
=51	=51	=51	=51	=51	=51	=51	=51
!LO:TX:a:t=P:problem=mixed beam	!	!	!	!	!	!	!
8E\L	#	8g#X/L	8g#X/L	.	4r	.	1ryy
8AA/J	.	16a/L	16a/L	.	.	.	.
.	.	16gn/JJ	16gn/JJ	.	.	.	.
8D/L	.	8f/L	8f/L	.	8r	.	.
8C#X/J	.	8e/J	8e/J	.	16A\	Si-	.
.	.	.	.	.	16A\	-cut	.
!LO:LB:g=original	!	!	!	!	!	!	!
8D/L	.	8d/	8d/	.	8F\	e-	.
8GG/J	-	4dd\	4dd\	.	8B-\	-rat	.
4AA/	4	.	.	.	8E\	in	.
.	#	8cc#X\	8cc#X\	.	8A\	prin-	.
=52	=52	=52	=52	=52	=52	=52	=52
4D\	.	8dd\L	8dd\L	.	8F\	-ci-	1ryy
.	.	16aa\L	16aa\L	.	16E\	-pi-	.
.	.	16bb-\JJ	16bb-\JJ	.	16D\	-o,	.
8r	.	16aa\LL	16aa\LL	.	8r	.	.
.	.	16gg\	16gg\	.	.	.	.
8F\	.	16ff\	16ff\	.	8d\	et	.
.	.	16ee\JJ	16ee\JJ	.	.	.	.
!	!	!	!	!	!LO:LB:g=original	!	!
4D\	6\	16ff\LL	16ff\LL	.	8Bn\	nunc,	.
.	5	16ee\	16ee\	.	.	.	.
.	.	16dd\	16dd\	.	8A\	et	.
.	.	16cc\JJ	16cc\JJ	.	.	.	.
4E\	#	8bn\L	8bn\L	.	4G#X\	Sem-	.
!	!	!LO:SIC:s=8ee:v	!	!	!	!	!
.	.	8dd\J	8ee\J	.	.	.	.
=53	=53	=53	=53	=53	=53	=53	=53
!LO:TX:a:t=P:problem=mixed beam	!	!	!	!	!	!	!
8AA/L	.	8cc/L	8cc\L	.	4A\	-per,	1ryy
16A\L	.	8a/J	8a\J	.	.	.	.
16B-X\JJ	.	.	.	.	.	.	.
!	!	!LO:LB:g=original	!	!	!	!	!
!	!	!LO:TX:a:t=P:problem=mixed beam	!LO:TX:a:t=P:problem=mixed beam	!	!	!	!
8A\L	.	8A/L	8A/L	.	8r	.	.
8G\J	.	8aa\J	8aa\J	.	16A\	et	.
.	.	.	.	.	16B-X\	in	.
8F#X\L	6 5	16aa\LL	16aa\LL	.	8c\	Sae-	.
.	.	16cc\	16cc\	.	.	.	.
8E\	.	16aa\	16aa\	.	16A\	-cu-	.
.	.	16cc\JJ	16cc\JJ	.	16F#X\	-la	.
8F#\	.	16a\LL	16a\LL	.	8D\	Sae-	.
.	.	16cc\	16cc\	.	.	.	.
8D\J	.	16ff#X\	16ff#X\	.	8c\	-cu-	.
.	.	16aa\JJ	16aa\JJ	.	.	.	.
=54	=54	=54	=54	=54	=54	=54	=54
!LO:TX:a:t=P:problem=mixed beam	!	!	!	!	!	!	!
8GG/L	.	16aa\LL	16aa\LL	.	8c\	-lo-	1ryy
.	.	16ff#X\J	16ff#X\J	.	.	.	.
16G\L	.	8gg\J	8gg\J	.	8B-\	-rum	.
16A\JJ	.	.	.	.	.	.	.
!	!	!LO:TX:a:t=P:problem=mixed beam	!LO:TX:a:t=P:problem=mixed beam	!	!	!	!
8G\L	.	8g/L	8g/L	.	8r	.	.
*	*	*	*	*	*	*ij	*
8F\J	.	8gg\J	8gg\J	.	16G\	et	.
.	.	.	.	.	16A\	in	.
!	!	!	!LO:LB:g=original	!	!	!	!
8E\L	6 5	16gg\LL	16gg\LL	.	8B-\	Sae-	.
.	.	16b-\	16b-\	.	.	.	.
8D\	.	16gg\	16gg\	.	16G\	-cu-	.
.	.	16b-\JJ	16b-\JJ	.	16E,<\	-la	.
8E\	.	16g\LL	16g\LL	.	8C/	Sae-	.
.	.	16b-\	16b-\	.	.	.	.
8C\J	.	16ee\	16ee\	.	8B-\	-cu-	.
.	.	16gg\JJ	16gg\JJ	.	.	.	.
=55	=55	=55	=55	=55	=55	=55	=55
!LO:TX:a:t=P:problem=mixed beam	!	!	!	!	!	!	!
8FF/L	.	16gg\LL	16gg\LL	.	8B-\	-lo-	1ryy
.	.	16ee\J	16ee\J	.	.	.	.
!	!	!LO:TX:a:t=P:problem=W źródle belka ósemki łączy się z wyższą belką szesnastek	!	!	!	!	!
16F\L	.	8ff\J	8ff\J	.	8A\	-rum	.
16G\JJ	.	.	.	.	.	.	.
*	*	*	*	*	*	*Xij	*
!	!	!LO:TX:a:t=P:problem=mixed beam	!LO:TX:a:t=P:problem=mixed beam	!	!	!	!
8F\L	.	8f/L	8f/L	.	8r	.	.
8E\J	.	8ff\J	8ff\J	.	16F\	et	.
.	.	.	.	.	16G\	in	.
8D/L	6 5	16ff\LL	16ff\LL	.	8A\	Sae-	.
.	.	16a\	16a\	.	.	.	.
!	!	!	!	!	!LO:SIC:custos F:v	!	!
!	!	!	!	!	!LO:LB:g=original	!	!
8C/	.	16ff\	16ff\	.	16F\	-cu-	.
.	.	16a\JJ	16a\JJ	.	16D\	-la	.
8D/	.	16f/LL	16f\LL	.	8BB-/	Sae-	.
.	.	16a/	16a\	.	.	.	.
8BB-/J	.	16dd/	16dd\	.	8A\	-cu-	.
.	.	16ff/JJ	16ff\JJ	.	.	.	.
=56	=56	=56	=56	=56	=56	=56	=56
4EE/	.	8ff\L	8ff\L	.	8A\	-lo-	1ryy
.	.	8ee\J	8ee\J	.	16G\LL	-rum	.
.	.	.	.	.	16F\JJ	.	.
4GG/	6	8r	8r	.	16E\LL	a-	.
.	.	.	.	.	16D\	.	.
.	.	16ee\LL	16ee\LL	.	16C#X\	.	.
.	.	16dd\JJ	16dd\JJ	.	16BB-\JJ	.	.
4AA/	#	8cc#X\L	8cc#X\L	.	8AA/	.	.
.	.	[>8a\J	8a\J	.	4G\	.	.
4C#X/	6	16a\LL]	16a\LL	.	.	.	.
.	.	16bb-\	16bb-\	.	.	.	.
.	.	16aa\	16aa\	.	16F\LL	.	.
.	.	16gg\JJ	16gg\JJ	.	16E\JJ	.	.
!LO:LB:g=original	!	!	!	!	!	!	!
=57	=57	=57	=57	=57	=57	=57	=57
4D\	.	8ff\	8ff\	.	8F\	.	1ryy
!	!	!LO:SIC:custos gg:v	!	!	!	!	!
!	!	!LO:LB:g=original	!	!	!	!	!
.	.	4gg\	4gg\	.	4B-\	.	.
4D\	6 4	.	.	.	.	.	.
.	.	16ff\LL	16ff\LL	.	16A\LL	.	.
.	.	16ee\JJ	16ee\JJ	.	16G\JJ	.	.
4D\	5 3	8ff\L	8ff\L	.	8A\L	.	.
.	.	8dd\J	8dd\J	.	[>8d\J	.	.
4E\	# x	4r	4r	.	16d\LL]	.	.
.	.	.	.	.	16B-\	.	.
.	.	.	.	.	16A\	.	.
.	.	.	.	.	16G#X\JJ	.	.
=58	=58	=58	=58	=58	=58	=58	=58
8F\L	6	1r	1r	.	16A\LL	.	1ryy
.	.	.	.	.	16F\	.	.
8G\	.	.	.	.	16E\	.	.
.	.	.	.	.	16D\JJ	.	.
8A\	#	.	.	.	8C#X/	.	.
8D\J	.	.	.	.	8D,</	-men	.
2AA/	4	.	.	.	2AA/	a-	.
.	#	.	.	.	.	.	.
=59	=59	=59	=59	=59	=59	=59	=59
8D\L	.	4dd\|	4dd\|	.	2D\	-men.	1ryy
8B-\	.	.	.	.	.	.	.
8A\	.	4dd\|	4dd\|	.	.	.	.
8G\J	.	.	.	.	.	.	.
!	!	!	!LO:LB:g=original	!	!	!	!
8F\L	6	16dd\LL	16dd\LL	.	2r	.	.
.	.	16cc#X\	16cc#X\	.	.	.	.
8E\	.	16dd\	16dd\	.	.	.	.
.	.	16ee\JJ	16ee\JJ	.	.	.	.
8D\	.	16ff\LL	16ff\LL	.	.	.	.
.	.	16gg\	16gg\	.	.	.	.
8G\J	.	16aa\	16aa\	.	.	.	.
.	.	16bb-\JJ	16bb-\JJ	.	.	.	.
=60	=60	=60	=60	=60	=60	=60	=60
!	!	!	!	!	!LO:TX:a:Bi:t=4.	!	!
8A\L	#	8cc#X\L|	8cc#X\L|	.	00r	.	1ryy
16D\L	.	8dd\J|	8dd\J|	.	.	.	.
16E\JJ	.	.	.	.	.	.	.
8F\L	.	16r	16r	.	.	.	.
.	.	16aa\LL	16aa\LL	.	.	.	.
8D\J	.	16gg\	16gg\	.	.	.	.
.	.	16aa\JJ	16aa\JJ	.	.	.	.
8G\L	.	16bb-\LL	16bb-\LL	.	.	.	.
.	.	16dd\	16dd\	.	.	.	.
8F\	.	16bb-\	16bb-\	.	.	.	.
.	.	16dd\JJ	16dd\JJ	.	.	.	.
8E\	.	16cc#\LL	16cc#\LL	.	.	.	.
.	.	16ee\	16ee\	.	.	.	.
8C\J	.	16gg\	16gg\	.	.	.	.
.	.	16bb-\JJ	16bb-\JJ	.	.	.	.
=61	=61	=61	=61	=61	=61	=61	=61
8F\L	.	16aa\LL	16aa\LL	.	.	.	1ryy
.	.	16cc\	16cc\	.	.	.	.
8E\	.	16aa\	16aa\	.	.	.	.
.	.	16cc\JJ	16cc\JJ	.	.	.	.
8D\	.	16b-\LL	16b-\LL	.	.	.	.
.	.	16dd\	16dd\	.	.	.	.
8BB-\J	.	16ff\	16ff\	.	.	.	.
.	.	16aa\JJ	16aa\JJ	.	.	.	.
!	!	!LO:SIC:custos gg:v	!	!	!	!	!
!	!	!LO:LB:g=original	!	!	!	!	!
8E\L	.	16gg\LL	16gg\LL	.	.	.	.
.	.	16b-\	16b-\	.	.	.	.
8D\	.	16gg\	16gg\	.	.	.	.
.	.	16b-\JJ	16b-\JJ	.	.	.	.
8C#X\	.	16a/LL	16a\LL	.	.	.	.
.	.	16cc#X/	16cc#X\	.	.	.	.
8AA\J	.	16ee/	16ee\	.	.	.	.
.	.	16gg/JJ	16gg\JJ	.	.	.	.
=62	=62	=62	=62	=62	=62	=62	=62
8D/L	.	16ff\LL	(>16ff\LL	.	.	.	1ryy
.	.	(>16ee\	16ee\)	.	.	.	.
8BB-/	.	16ee\	(>16ee\	.	.	.	.
.	.	16dd\JJ)	16dd\JJ)	.	.	.	.
8GG/	.	16ee-X\LL	(>16ee-X\LL	.	.	.	.
.	.	(>16dd\	16dd\)	.	.	.	.
8AA/J	.	16dd\	(>16dd\	.	.	.	.
.	.	16cc#X\JJ)	16cc#X\JJ)	.	.	.	.
!	!	!	!LO:LB:g=original	!	!	!	!
8BB-/L	.	8dd\L	8dd\L	.	.	.	.
8GG/J	.	8bb-\J	8bb-\J	.	.	.	.
!	!	!LO:TX:a:t=P:problem=w źrodle tryl z łuczkiem	!	!	!	!	!
4AA/	.	4cc#Xt>\	4cc#Xt>\	.	.	.	.
=63	=63	=63	=63	=63	=63	=63	=63
4D\	.	4dd\	4dd\	.	.	.	1ryy
4r	.	4r	4r	.	.	.	.
2r	.	2r	2r	.	.	.	.
!	!	!LO:TX:a:t=P:problem=w źrodle ozdobna kreska końcowa &colon;||&colon;	!LO:TX:a:t=P:problem=w źrodle ozdobna kreska końcowa	!	!	!	!
==;	==	==;;	==	==	==;;	==	==
*-	*-	*-	*-	*-	*-	*-	*-
!!title: @{OTL};
!!!RDF**kern: > = above
!!!RDF**kern: < = below
!!!RDF**kern: i = editorial accidental
!!!EED: Wojciech Jakubiak-Danek
!!!EST: 2020-12-30
!!!URL-scan: http://repozytorium.nifc.pl/skany/pl-cz-nut--iii-50
!!!ONB-nifc: UWAGA: części Vesperae: Dixit Dominus, Confitebor, Beatus vir, Laudate pueri, Laudate Dominum, In exitu, Laetatus sum, Nisi Dominus, Lauda Jerusalem, Credidi, In convertendo, Domine probasti me, Memento Domine David, Confitebor, De profundis, Beati omnes, Magnificat
!!!AIN: 1 empty 1 organ 2 violn 1 vox
!!!ENC: Kamil Watkowski
!!!END: 2020-06-25
!!!RDF**kern: | = vertical stroke
